X: 1
T: Kohler's Hornpipe
T: Laybourne's Hornpipe
M: C
L: 1/8
R: Hornpipe
F: http://www.ibiblio.org/fiddlers/KISS_KY.htm	2012-3-17
B: BSFC Session Tune Book 2016 p.32
B: K\"ohler's Violin Repository, v.1, 1885 p.66 #3 (unnamed hornpipe)
%Q: 230
K: C
G2 |\
"C"cBcd cdef | "C"g^fga "C7"gedc | "F"A^GAB cdcA | "C"GEcA "C7"GECE |
"F"FEFG "G7"AGAB | "C"cBcd "A7"egag | "F(Dm)"fedc "G"AcBd | "G7"eccB "C"c2 :|
|: g2 |\
"C"egcg egcg | "G"dgBg dgBg | "Am"ceAe ceAe | "C"GcEc GcEc |
"F"FEFG "G7"AGAB | "C"cBcd "A7"egag | "F(Dm)"fedc "G"AcBd | "G7"eccB "C"c2 :|]
